actions/22x22-dark/zoom-original.svg

<svg viewBox="0 0 22 22" xmlns="http://www.w3.org/2000/svg"><path d="m6.625 3-3.2519531.0097656c-.10335.00033-.1961719.0435281-.2636719.1113282-.06759.0677699-.109675.1605318-.109375.2636718l.0097656 3.2421875c.00066.2063.1702032.3737469.3769532.3730469.2067299-.00066.3736668-.16875.3730468-.375l-.0097656-2.8691406 2.8769531-.0097656c.2067-.0006502.3736969-.1668269.3730469-.3730469-.00057-.20629-.16814-.3737569-.375-.3730469zm8.75 0c-.20686-.00071-.37444.1667569-.375.3730469-.00065.20622.166337.3723968.373047.3730469l2.876953.0097656-.009766 2.8691406c-.00061.20625.166327.37434.373047.375.20676.0007.376293-.1667469.376953-.3730469l.009766-3.2421875c.0003-.10314-.041785-.1959019-.109375-.2636718-.0675-.0678001-.160322-.1109982-.263672-.1113282zm-8.875 3c-.27121 0-.5.22879-.5.5v9c0 .27122.22879.5.5.5h9c .27122 0 .5-.22878.5-.5v-9c0-.27121-.22878-.5-.5-.5zm-3.1132812 9c-.20675-.0007-.3762932.166757-.3769532.373047l-.0097656 3.242187c-.0003.10313.041785.195892.109375.263672.0675.0678.1603219.110998.2636719.111328l3.2519531.009766c.20686.00071.37443-.166747.375-.373047.00065-.20621-.1663469-.372397-.3730469-.373047l-2.8769531-.009765.0097656-2.869141c.00062-.20624-.1663169-.37433-.3730468-.375zm15.2265622 0c-.20672.00067-.373657.16876-.373047.375l.009766 2.869141-2.876953.009765c-.20671.00065-.373697.166837-.373047.373047.00056.2063.16814.373757.375.373047l3.251953-.009766c.10335-.00033.196172-.043528.263672-.111328.06759-.06778.109675-.160542.109375-.263672l-.009766-3.242187c-.00066-.20629-.170193-.373747-.376953-.373047z" fill="#f2f2f2"/></svg>

<svg xmlns="http://www.w3.org/2000/svg" viewBox="0 0 22 22">
  <defs id="defs3051">
    <style type="text/css" id="current-color-scheme">
      .ColorScheme-Text {
        color:#f2f2f2
      }
      </style>
  </defs>
    <path
       style="fill:currentColor;fill-opacity:1;stroke:none"
       class="ColorScheme-Text"
       d="M 6.625 3 L 3.3730469 3.0097656 C 3.2696969 3.0100956 3.176875 3.0532937 3.109375 3.1210938 C 3.041785 3.1888637 2.9997 3.2816256 3 3.3847656 L 3.0097656 6.6269531 C 3.0104256 6.8332531 3.1799688 7.0007 3.3867188 7 C 3.5934487 6.99934 3.7603856 6.83125 3.7597656 6.625 L 3.75 3.7558594 L 6.6269531 3.7460938 C 6.8336531 3.7454436 7.00065 3.5792669 7 3.3730469 C 6.99943 3.1667569 6.83186 2.99929 6.625 3 z M 15.375 3 C 15.16814 2.99929 15.00056 3.1667569 15 3.3730469 C 14.99935 3.5792669 15.166337 3.7454437 15.373047 3.7460938 L 18.25 3.7558594 L 18.240234 6.625 C 18.239624 6.83125 18.406561 6.99934 18.613281 7 C 18.820041 7.0007 18.989574 6.8332531 18.990234 6.6269531 L 19 3.3847656 C 19.0003 3.2816256 18.958215 3.1888637 18.890625 3.1210938 C 18.823125 3.0532937 18.730303 3.0100956 18.626953 3.0097656 L 15.375 3 z M 6.5 6 C 6.22879 6 6 6.22879 6 6.5 L 6 15.5 C 6 15.77122 6.22879 16 6.5 16 L 15.5 16 C 15.77122 16 16 15.77122 16 15.5 L 16 6.5 C 16 6.22879 15.77122 6 15.5 6 L 6.5 6 z M 3.3867188 15 C 3.1799688 14.9993 3.0104256 15.166757 3.0097656 15.373047 L 3 18.615234 C 2.9997 18.718364 3.041785 18.811126 3.109375 18.878906 C 3.176875 18.946706 3.2696969 18.989904 3.3730469 18.990234 L 6.625 19 C 6.83186 19.00071 6.99943 18.833253 7 18.626953 C 7.00065 18.420743 6.8336531 18.254556 6.6269531 18.253906 L 3.75 18.244141 L 3.7597656 15.375 C 3.7603856 15.16876 3.5934487 15.00067 3.3867188 15 z M 18.613281 15 C 18.406561 15.00067 18.239624 15.16876 18.240234 15.375 L 18.25 18.244141 L 15.373047 18.253906 C 15.166337 18.254556 14.99935 18.420743 15 18.626953 C 15.00056 18.833253 15.16814 19.00071 15.375 19 L 18.626953 18.990234 C 18.730303 18.989904 18.823125 18.946706 18.890625 18.878906 C 18.958215 18.811126 19.0003 18.718364 19 18.615234 L 18.990234 15.373047 C 18.989574 15.166757 18.820041 14.9993 18.613281 15 z "
        />
</svg>
